X:1
T:Come, Great Deliverer, Come
T:William Howard Doane
T:Come, Great Deliverer, Come
T:Public Domain
T:Public Domain
T:Public Domain
C:William Howard Doane
Z:Public Domain
%%score ( 1 2 ) ( 3 4 )
L:1/8
M:4/4
K:C
V:1 treble 
V:2 treble 
V:3 bass 
V:4 bass 
V:1
 ([EG]>[DF]) | [CE]2 [EG]2 [Ec]3 [Ec] | [Fd][Fc][FB][FA] [FA]4 | [EG]2 [GB]>[Gc] [GB]2 (cd) | %4
w: 1.~O *|hear my cry, be|gra- cious now to me,|Come, Great De- liver- er, *|
w: 2.~I *|have no place, no|shel- ter from the night,|Come, Great De- liver- er, *|
w: 3.~My *|path is lone, and|wear- y are my feet,|Come, Great De- liver- er, *|
w: 4.~Thou *|wilt not spurn con-|tri- tion’s brok- en sigh,|Come, Great De- liver- er, *|
 [Gc]6 ([EG]>[DF]) | [CE]2 [EG]2 [Ec]3 [Ec] | [Fd][Fc][FB][FA] [FA]4 | [EG]2 [GB]>[Gc] [GB]2 (cd) | %8
w: My soul *|bowed down is long-|ing now for Thee, Come,|Great De- liver- er, come. *|
w: One look *|from Thee would give|me life and light, Come,|Great De- liver- er, come. *|
w: Mine eyes *|look up Thy lov-|ing smile to meet, Come,|Great De- liver- er, come. *|
w: Re- gard *|my prayer, and hear|my hum- ble cry, Come,|Great De- liver- er, come. *|
 [Gc]6 ||"^Refrain" [Ec]2 | [FB]>[FA] [FB]>[Ec] [Fd]2 [FB]2 | [FA]2 [EG]2 [Ec]3 [Ec] | %12
w: ||||
w: ||||
w: wan-|dered|far a- way o’er mount- ains|cold, I’ve wan- dered|
w: ||||
 [Ec]>[DB] [Ec]>[Fd] [Ge]2 [Gc]2 | (e4 d2) (G>F) | [CE]2 [EG]2 [Ec]3 [Ec] | %15
w: |||
w: |||
w: far a- way from home; O|take * me *|bring me to Thy|
w: |||
 [Fd][Fc][FB][FA] [FA]4 | [EG]2 [GB]>[Gc] [GB]2 (cd) | [Gc]6 |] %18
w: |||
w: |||
w: fold, Come, Great De- liver-|er, come. * * * *||
w: |||
V:2
 x2 | x8 | x8 | x6 G2 | x8 | x8 | x8 | x6 G2 | x6 || x2 | x8 | x8 | x8 | G6 D2 | x8 | x8 | x6 G2 | %17
w: |||come;||||||||||||||
w: |||come;||||||||||||||
w: |||come;||||I’ve||||||now, and||||
w: |||come.||||||||||||||
 x6 |] %18
w: |
w: |
w: |
w: |
V:3
 [C,G,]2 | [C,G,]2 [C,C]2 [C,G,]3 [C,G,] | [F,A,][F,A,][F,B,][F,C] [F,C]4 | %3
 [G,C]2 [G,D]>[G,E] [G,D]2 (EF) | [C,E]6 [C,G,]2 | [C,G,]2 [C,C]2 [C,G,]3 [C,G,] | %6
 [F,A,][F,A,][F,B,][F,C] [F,C]4 | [G,C]2 [G,D]>[G,E] [G,D]2 (EF) | [C,E]6 || [C,C]2 | %10
 [G,D]>[G,C] [G,D]>[G,C] [G,B,]2 [G,D]2 | [C,C]2 [C,C]2 [C,G,]3 [C,G,] | %12
 [C,G,]>[C,G,] [C,G,]>[C,G,] [C,C]2 [E,C]2 | (C4 B,2) [G,B,]2 | [C,C]2 [C,C]2 [C,G,]3 [C,G,] | %15
 [F,A,][F,A,][F,B,][F,C] [F,C]4 | [G,C]2 [G,D]>[G,E] [G,D]2 (EF) | [C,E]6 |] %18
V:4
 x2 | x8 | x8 | x6 G,2 | x8 | x8 | x8 | x6 G,2 | x6 || x2 | x8 | x8 | x8 | G,6 x2 | x8 | x8 | %16
 x6 G,2 | x6 |] %18

